X:1 
T:Australian Waters #3
R:jig
Z:C. McGrew from M.Bogner's transcription of Altan
M:6/8
Q:3/8=120
K:Ador
ed | cBA BAG| EAA A2B| ccc Adc| BGF GBd|
     gfg age| dcB fge| edc Bcd| ecA A :|
f^g| ae^c aec| A^GB A2f| gdB gdB| GFA GAB|
     cBc d^cd| e^de a2g| edc Bcd| ecA A :|
